docs/.gitbook/assets/icon-mouse-16@light.svg

<svg width="32" height="32" viewBox="0 0 16 16" fill="none" xmlns="http://www.w3.org/2000/svg">
<rect x="0" y="0" width="16" height="16" fill="#fff"/>
<path fill-rule="evenodd" clip-rule="evenodd" d="M3 3.75C3 2.23122 4.23122 1 5.75 1H8H10.25C11.7688 1 13 2.23122 13 3.75V10.25C13 12.8734 10.8734 15 8.25 15H7.75C5.12665 15 3 12.8734 3 10.25V3.75ZM5.75 2.5C5.05964 2.5 4.5 3.05964 4.5 3.75V10.25C4.5 12.0449 5.95507 13.5 7.75 13.5H8.25C10.0449 13.5 11.5 12.0449 11.5 10.25V3.75C11.5 3.05964 10.9404 2.5 10.25 2.5H8.75V4.25C8.75 4.66421 8.41421 5 8 5C7.58579 5 7.25 4.66421 7.25 4.25V2.5H5.75Z" fill="#000"/>
</svg>

<svg xmlns="http://www.w3.org/2000/svg" width="32" height="32" fill="none" viewBox="0 0 16 16"><path fill="#fff" d="M0 0h16v16H0z"/><path fill="#000" fill-rule="evenodd" d="M3 3.75A2.75 2.75 0 0 1 5.75 1h4.5A2.75 2.75 0 0 1 13 3.75v6.5A4.75 4.75 0 0 1 8.25 15h-.5A4.75 4.75 0 0 1 3 10.25zM5.75 2.5c-.69 0-1.25.56-1.25 1.25v6.5a3.25 3.25 0 0 0 3.25 3.25h.5a3.25 3.25 0 0 0 3.25-3.25v-6.5c0-.69-.56-1.25-1.25-1.25h-1.5v1.75a.75.75 0 0 1-1.5 0V2.5z" clip-rule="evenodd"/></svg>
